svg/justvector/linkedin_alt.svg

<svg xmlns="http://www.w3.org/2000/svg" viewBox="0 0 100 100" enable-background="new 0 0 100 100"><path d="m87.88 5.608h-76.7c-3.673 0-6.65 2.886-6.65 6.448v77.1c0 3.562 2.978 6.451 6.65 6.451h76.7c3.673 0 6.646-2.89 6.646-6.451v-77.1c0-3.561-2.973-6.448-6.646-6.448m-56.07 75.34h-13.598v-40.634h13.598v40.634m-6.798-46.19h-.091c-4.56 0-7.516-3.119-7.516-7.02 0-3.983 3.043-7.02 7.693-7.02 4.651 0 7.512 3.03 7.602 7.02 0 3.905-2.95 7.02-7.688 7.02m55.816 46.19h-13.594v-21.74c0-5.464-1.97-9.191-6.886-9.191-3.761 0-5.993 2.515-6.973 4.942-.364.868-.453 2.08-.453 3.292v22.696h-13.592c0 0 .178-36.823 0-40.634h13.593v5.761c1.805-2.768 5.03-6.717 12.249-6.717 8.947 0 15.656 5.804 15.656 18.291v23.3m-27.993-34.745c.024-.038.056-.084.088-.128v.128h-.088"/></svg>

<?xml version="1.0" encoding="iso-8859-1"?>
<!-- Generator: Adobe Illustrator 15.0.0, SVG Export Plug-In . SVG Version: 6.00 Build 0)  -->
<!DOCTYPE svg PUBLIC "-//W3C//DTD SVG 1.1//EN" "http://www.w3.org/Graphics/SVG/1.1/DTD/svg11.dtd">
<svg version="1.1" id="Icons" xmlns="http://www.w3.org/2000/svg" xmlns:xlink="http://www.w3.org/1999/xlink" x="0px" y="0px"
	 width="100px" height="100px" viewBox="0 0 100 100" style="enable-background:new 0 0 100 100;" xml:space="preserve">
<path id="LinkedIn__x28_alt_x29_" d="M87.877,5.608H11.174c-3.673,0-6.65,2.886-6.65,6.448v77.101c0,3.562,2.978,6.451,6.65,6.451
	h76.703c3.673,0,6.646-2.89,6.646-6.451V12.056C94.523,8.495,91.55,5.608,87.877,5.608z M31.809,80.944H18.211V40.31h13.598V80.944z
	 M25.011,34.759H24.92c-4.56,0-7.516-3.119-7.516-7.023c0-3.983,3.043-7.017,7.693-7.017c4.651,0,7.512,3.033,7.602,7.017
	C32.699,31.641,29.749,34.759,25.011,34.759z M80.827,80.944H67.233v-21.74c0-5.464-1.97-9.191-6.886-9.191
	c-3.761,0-5.993,2.515-6.973,4.942c-0.364,0.868-0.453,2.08-0.453,3.292v22.696H39.329c0,0,0.178-36.823,0-40.634h13.593v5.761
	c1.805-2.768,5.029-6.717,12.249-6.717c8.947,0,15.656,5.804,15.656,18.291V80.944z M52.834,46.199
	c0.024-0.038,0.056-0.084,0.088-0.128v0.128H52.834z"/>
</svg>
